icons/gleamconfig.svg

<svg width="16" height="16" viewBox="0 0 16 16" fill="none" xmlns="http://www.w3.org/2000/svg">
<path d="M9.08891 8.70894C9.30187 8.65118 9.52205 8.77725 9.58012 8.99019C9.73845 9.571 9.39523 10.1696 8.8145 10.3281C8.23365 10.4863 7.63396 10.1443 7.47563 9.56343C7.41783 9.35043 7.54389 9.13028 7.75688 9.07222C7.96995 9.01425 8.19 9.14042 8.24809 9.35347C8.2903 9.50801 8.44996 9.59873 8.60454 9.55659C8.75881 9.5143 8.84956 9.35551 8.80766 9.20113C8.74959 8.98801 8.87581 8.76705 9.08891 8.70894ZM6.09868 7.68257C6.55546 7.6826 6.9258 8.05294 6.92583 8.50972C6.92575 8.96645 6.55543 9.33684 6.09868 9.33687C5.64195 9.33682 5.27161 8.96644 5.27153 8.50972C5.27156 8.05295 5.64192 7.68262 6.09868 7.68257ZM10.4698 6.85542C10.9264 6.85564 11.2969 7.22591 11.2969 7.68257C11.2968 8.13919 10.9264 8.5095 10.4698 8.50972C10.013 8.50972 9.6427 8.13933 9.64262 7.68257C9.64265 7.22578 10.013 6.85542 10.4698 6.85542Z" fill="#E483E0"/>
<path d="M5.96731 2.45991C6.44676 1.61616 7.62329 1.43479 8.33289 2.14806L10.1258 3.95114L10.1951 4.009C10.268 4.05976 10.3539 4.09011 10.4437 4.09681L12.9801 4.28662C13.9833 4.36185 14.6106 5.37343 14.2814 6.28639L14.203 6.46734L13.0425 8.73047C12.9877 8.83738 12.9727 8.96059 13.0012 9.0773L13.6049 11.5479C13.8593 12.5904 12.9685 13.5548 11.9091 13.3842L9.39763 12.9802C9.3087 12.966 9.21824 12.9761 9.13543 13.0087L9.05575 13.0485L6.89183 14.3856C5.9791 14.9496 4.78727 14.4011 4.62195 13.341L4.22991 10.8281C4.21604 10.739 4.17862 10.6555 4.12199 10.5867L4.05958 10.5235L2.11915 8.87933C1.30036 8.18554 1.45372 6.88095 2.41121 6.3962L4.68039 5.24718L4.75567 5.20029C4.8268 5.14654 4.88281 5.07432 4.91701 4.99083L5.88125 2.63742L5.96731 2.45991ZM7.62323 2.85335C7.38679 2.61592 6.9952 2.67601 6.83528 2.95685L6.80634 3.0164L5.8421 5.36981C5.72247 5.66186 5.5145 5.90786 5.24869 6.0738L5.13146 6.14003L2.86324 7.28885C2.54408 7.45044 2.49251 7.88473 2.76544 8.11599L4.70586 9.76016L4.80484 9.85194C5.02449 10.0749 5.16929 10.3622 5.21783 10.6737L5.60987 13.1866C5.66492 13.5401 6.06234 13.7235 6.36662 13.5355L8.52939 12.1976L8.64777 12.1321C8.92774 11.9921 9.24571 11.9424 9.55697 11.9924L12.0676 12.3975C12.4208 12.4544 12.7183 12.1322 12.6334 11.7847L12.0297 9.31403C11.9443 8.96386 11.9882 8.59449 12.1527 8.27374L13.3132 6.01061L13.3391 5.95068C13.4489 5.64637 13.2398 5.30957 12.9054 5.28441L10.369 5.0946C10.0546 5.0711 9.75685 4.94892 9.51702 4.74782L9.41709 4.65623L7.62323 2.85335Z" fill="#E483E0"/>
</svg>

<svg xmlns="http://www.w3.org/2000/svg" width="16" height="16" fill="none" viewBox="0 0 16 16"><path fill="#E483E0" d="M9.089 8.709a.4.4 0 0 1 .491.281 1.09 1.09 0 0 1-2.104.573.4.4 0 0 1 .772-.21.29.29 0 0 0 .56-.152.4.4 0 0 1 .28-.492m-2.99-1.026a.827.827 0 1 1 0 1.654.827.827 0 0 1 0-1.654m4.37-.828a.827.827 0 1 1 0 1.655.827.827 0 0 1 0-1.655"/><path fill="#E483E0" d="M5.967 2.46a1.5 1.5 0 0 1 2.366-.312l1.793 1.803.07.058a.5.5 0 0 0 .248.088l2.536.19a1.5 1.5 0 0 1 1.301 2l-.078.18-1.16 2.263a.5.5 0 0 0-.042.347l.604 2.47a1.5 1.5 0 0 1-1.696 1.837l-2.511-.404a.5.5 0 0 0-.263.029l-.08.04-2.163 1.337a1.5 1.5 0 0 1-2.27-1.045l-.392-2.513a.5.5 0 0 0-.108-.241l-.062-.063-1.94-1.645a1.5 1.5 0 0 1 .291-2.483l2.27-1.149.075-.047a.5.5 0 0 0 .161-.21l.964-2.353zm1.656.393a.5.5 0 0 0-.788.104l-.029.06-.964 2.353a1.5 1.5 0 0 1-.593.704l-.118.066-2.268 1.149a.5.5 0 0 0-.098.827l1.94 1.644.1.092c.22.223.364.51.413.822l.392 2.513a.5.5 0 0 0 .757.349l2.162-1.338.119-.066a1.5 1.5 0 0 1 .909-.14l2.51.406a.5.5 0 0 0 .566-.613l-.603-2.471a1.5 1.5 0 0 1 .123-1.04l1.16-2.263.026-.06a.5.5 0 0 0-.434-.667l-2.536-.19a1.5 1.5 0 0 1-.852-.346l-.1-.092z"/></svg>
